X:1
T:Verbum caro factum est
T:J. Furmanik
T:Verbum caro factum est
C:J. Furmanik
%%score [ ( 1 2 ) ( 3 4 ) ]
L:1/8
Q:1/4=100
M:4/4
K:F
V:1 treble nm="P1"
V:2 treble 
V:3 bass nm="P2"
V:4 bass 
V:1
!p!"^Moderato" F2 F2 G2 G2 | A2 G2 F4 | c2 cc d2 dd |"^-" (c2"^-" =B2) !fermata!c2 || %4
w: Ver- bum ca- ro|fa- ctum est,|et ha- bi- ta- vit in|no- * bis.|
w: ||||
!p!"^Più mosso" F2 |"^accel."!<(! FEFG AGA!<)!B | (c2 d2) c2!mf! cc/c/ |!<(! G^FGA BAB!<)!c | %8
w: Et|vi- * di- mus glo- * ri- am|e- * jus, glo- ri- am|qua- si U- ni- ge- ni- ti a|
w: ||||
!f! d4 e4 |!ff! f2 c2!>(! dcB!>)!A |!mf! B2 B2 cBAG |"^rit." (A2 B2) c2 c2 | %12
w: Pa- tre|ple- num gra- * ti- ae,|ple- num gra- * ti- ae,|et _ ve- ri-|
w: ||||
"^rall." (A2 G2) !fermata!A4 ||!p! A3 A A2 A2 | B4 B4 |!<(! B6 c2 | d2 d2!<)! _e2 d2 | %17
w: ta- * tis.|Om- ni- a per|ip- sum|fa- cta|sunt et si- ne|
w: |||||
 (c"^-"!>(!B"^-"AG"^-" ^F2) A2!>)! |"^-""^-" B6"^-" AA | G4 !fermata!G2 ||!p!"^Più mosso" F2 | %21
w: ip- * * * * so|fa- ctum *|ni- hil.|Et|
w: |fa- ctum est|||
"^accel."!<(! FEFG AGA!<)!B | (c2 d2) c2!mf! cc/c/ |!<(! G^FGA BAB!<)!c |!f! d4!ff! e4 | %25
w: vi- * di- mus glo- * ri- am|e- * jus, glo- ri- am|qua- si U- ni- ge- ni- ti a|Pa- tre|
w: ||||
 f2 c2!>(! dcB!mf!A!>)! | B2 B2 cBAG |"^rit." (A2 B2) c2 c2 |"^rall." (A2 G2) !fermata!A4 || %29
w: ple- num gra- * ti- ae,|ple- num gra- * ti- ae|et _ ve- ri-|ta- * tis.|
w: ||||
!p! A16 |[M:4/4] B2 B2 A4 |[M:2/4] c2 c2 |[M:4/4] d2 cc (B2 G2) | !fermata!A6 || %34
w: Gloria~~~~~Patri~~~~~et|Fi- li- o,|et Spi-|ri- tu- i San- *|cto.|
w: |||||
!p!"^Più mosso" F2 |"^accel."!<(! FEFG AGA!<)!B | (c2 d2) c2!mf! cc/c/ |!<(! G^FGA BAB!<)!c | %38
w: Et|vi- * di- mus glo- * ri- am|e- * jus, glo- ri- am|qua- si U- ni- ge- ni- ti a|
w: ||||
!f! d4!ff! e4 | f2 c2!>(! dcB!>)!A |!mf! B2 B2 cBAG |"^rit." (A2 B2) c2 c2 | %42
w: Pa- tre|ple- num gra- * ti- ae,|ple- num gra- * ti- ae|et _ ve- ri-|
w: ||||
"^rall." (A2 G2) !fermata!A4 |] %43
w: ta- * tis.|
w: |
V:2
 C2 D2 D2 E2 | F2 E2 F4 | G2 FF F2 FF | (EFGF) E2 || F2 | FEFE FGFF | F4 F2 FF/F/ | G^FGF GAG=F | %8
 F4 B4 | A2 F2 F^FGA | G2 G2 G2 EE | F4 F2 F2 | (F2 E2) F4 || F3 F F2 D2 | D4 D4 | G4 G4 | %16
 ^F2 G2 G2 =F2 | (_E4 D2) D2 | (DCD=E) F2 F2 | (F2 D2) E2 || F2 | FEFE FGFF | F4 F2 FF/F/ | %23
 G^FGF GAG=F | F4 B4 | A2 F2 F^FGA | G2 G2 G2 EE | F4 F2 F2 | (F2 E2) F4 || F16 |[M:4/4] F2 F2 F4 | %31
[M:2/4] F2 F2 |[M:4/4] F2 FF (F2 E2) | F6 || F2 | FEFE FGFF | F4 F2 FF/F/ | G^FGF GAG=F | F4 B4 | %39
 A2 F2 F^FGA | G2 G2 G2 EE | F4 F2 F2 | (F2 E2) F4 |] %43
V:3
 A,2 A,2 B,2 C2 | C2 B,2 A,4 | G,2 A,A, A,2 =B,B, | (CDED) C2 || A,2 |!<(! A,B,A,C C2 C!<)!C | %6
 (C2 B,2) A,2 CC/C/ |!<(! DDDD DDD!<)!C | B,4 C4 | C2 F2 D2 DD | D2 D2 C2 CC | (C2 D2) C2 C2 | %12
 C4 C4 || C3 C C2 C2 | B,4 B,4 |!<(! _E4 G,4 | A,2 B,2!<)! B,2 B,2 |!>(! (G,2 CB, A,2) C2!>)! | %18
 B,4 C2 C2 | C4 C2 || A,2 |!<(! A,B,A,C C2 C!<)!C | (C2 B,2) A,2 CC/C/ |!<(! DDDD DDD!<)!C | %24
 B,4 C4 | C2 F2!>(! D2 DD!>)! | D2 D2 C2 CC | (C2 D2) C2 C2 | C4 C4 || C16 |[M:4/4] D2 D2 C4 | %31
[M:2/4] A,2 A,2 |[M:4/4] B,2 CC (D2 C2) | C6 || A,2 |!<(! A,B,A,C C2 C!<)!C | (C2 B,2) A,2 CC/C/ | %37
!<(! DDDD DDD!<)!C | B,4 C4 | C2 F2!>(! D2 DD!>)! | D2 D2 C2 CC | (C2 D2) C2 C2 | C4 C4 |] %43
V:4
 F,2 D,2 G,2 C,2 | F,2 C,2 D,4 | E,2 F,F, D,2 G,G, | (A,2 G,2) !fermata!C,2 || F,2 | %5
 F,G,F,C, F,E,F,G, | (A,2 B,2) F,2 A,A,/A,/ | B,CB,A, G,^F,G,A, | B,4 G,4 | F,2 A,2 B,A,G,^F, | %10
 G,2 =F,2 E,2 C,C, | (F,2 D,2) A,,3 B,, | C,4 !fermata!F,4 || F,3 F, F,2 ^F,2 | G,4 G,4 | %15
 _E,4 E,4 | D,2 G,2 _E,2 B,,2 | (C,4 D,2) ^F,2 | G,4 F,2 F,2 | C,4 !fermata!C,2 || F,2 | %21
 F,G,F,C, F,E,F,G, | (A,2 B,2) F,2 A,A,/A,/ | B,CB,A, G,^F,G,A, | B,4 G,4 | F,2 A,2 B,A,G,^F, | %26
 G,2 =F,2 E,2 C,C, | (F,2 D,2) A,,3 B,, | C,4 !fermata!F,4 || F,16 |[M:4/4] B,,2 B,,2 F,4 | %31
[M:2/4] F,2 F,2 |[M:4/4] B,,2 A,,A,, (B,,2 C,2) | !fermata!F,6 || F,2 | F,G,F,C, F,E,F,G, | %36
 (A,2 B,2) F,2 A,A,/A,/ | B,CB,A, G,^F,G,A, | B,4 G,4 | F,2 A,2 B,A,G,^F, | G,2 =F,2 E,2 C,C, | %41
 (F,2 D,2) A,,3 B,, | C,4 !fermata!F,4 |] %43

